assets/icons/supported_selectable_icons/logos/financial_institutions/716.svg

<svg xmlns="http://www.w3.org/2000/svg" width="512" height="512" fill="none"><path fill="#fff" d="M0 0h512v512H0z"/><path fill="#31C7ED" fill-rule="evenodd" d="M422 193.117s-17.308-.061-35.6 0c-18.292.06-22.924 14.057-22.924 14.057l-45.744 118.265 17.808 46.02c18.272-.072 22.904-14.057 22.904-14.057z" clip-rule="evenodd"/><path fill="#223AD2" fill-rule="evenodd" d="m287.136 246.354-.044-.112a.1.1 0 0 1 0-.04l-.032-.076c-4-10.061-12.308-18.355-21.88-24.787 9.6-8.41 15.568-20.945 15.568-34.939 0-20.192-17.356-45.9-67.2-45.9H126.1v67.435H90v38.779h36.092V316.4H218a98.6 98.6 0 0 0 23.524-2.687l.1-.024a70.6 70.6 0 0 0 16.128-6.056l19.26 49.781s4.636 13.993 22.92 14.058 35.6 0 35.6 0zm-109.16-67.07h32.312c14.232 0 18.68 7.413 18.68 14.329s-4.428 14.282-18.568 14.322h-32.424zm0 67.426h34.26c15.084 0 19.8 7.858 19.8 15.191s-4.692 15.143-19.68 15.187h-34.38z" clip-rule="evenodd"/><path fill="url(#a)" d="M239.084 259.346s-3.856-12.692-24.8-12.692H212.8v.06c14.636.197 19.232 7.95 19.232 15.187 0 7.317-4.692 15.143-19.68 15.187h-34.376v-30.414l-51.876.04V316.4H218a98.6 98.6 0 0 0 23.524-2.687l.1-.024a70.6 70.6 0 0 0 16.128-6.056z" opacity=".8"/><path fill="#31C7ED" d="M126.092 246.715H90l36.092 16.636z"/><defs><linearGradient id="a" x1="166.848" x2="189.407" y1="292.485" y2="253.459" gradientUnits="userSpaceOnUse"><stop stop-color="#223AD2"/><stop offset="1" stop-color="#17278C"/></linearGradient></defs></svg>

<svg xmlns="http://www.w3.org/2000/svg" width="512" height="512" viewBox="0 0 512 512" fill="none">
<rect width="512" height="512" fill="white"/>
<path fill-rule="evenodd" clip-rule="evenodd" d="M422 193.117C422 193.117 404.692 193.056 386.4 193.117C368.108 193.177 363.476 207.174 363.476 207.174L317.732 325.439L335.54 371.459C353.812 371.387 358.444 357.402 358.444 357.402L422 193.117Z" fill="#31C7ED"/>
<path fill-rule="evenodd" clip-rule="evenodd" d="M287.136 246.354L287.092 246.242C287.09 246.228 287.09 246.215 287.092 246.202L287.06 246.126C283.06 236.065 274.752 227.771 265.18 221.339C274.78 212.929 280.748 200.394 280.748 186.4C280.748 166.208 263.392 140.5 213.548 140.5H126.1V207.935H90V246.714H126.092V316.4H218C225.921 316.452 233.819 315.55 241.524 313.713L241.624 313.689C247.227 312.337 252.643 310.303 257.752 307.633L277.012 357.414C277.012 357.414 281.648 371.407 299.932 371.472C318.216 371.536 335.532 371.472 335.532 371.472L287.136 246.354ZM177.976 179.284H210.288C224.52 179.284 228.968 186.697 228.968 193.613C228.968 200.53 224.54 207.895 210.4 207.935H177.976V179.284ZM177.976 246.71H212.236C227.32 246.71 232.036 254.568 232.036 261.901C232.036 269.234 227.344 277.044 212.356 277.088H177.976V246.71Z" fill="#223AD2"/>
<path opacity="0.8" d="M239.084 259.346C239.084 259.346 235.228 246.654 214.284 246.654H212.8V246.714C227.436 246.911 232.032 254.664 232.032 261.901C232.032 269.218 227.34 277.044 212.352 277.088H177.976V246.674L126.1 246.714V316.4H218C225.921 316.452 233.819 315.55 241.524 313.713L241.624 313.689C247.227 312.337 252.643 310.303 257.752 307.633L239.084 259.346Z" fill="url(#paint0_linear_2368_14271)"/>
<path d="M126.092 246.715H90L126.092 263.351V246.715Z" fill="#31C7ED"/>
<defs>
<linearGradient id="paint0_linear_2368_14271" x1="166.848" y1="292.485" x2="189.407" y2="253.459" gradientUnits="userSpaceOnUse">
<stop stop-color="#223AD2"/>
<stop offset="1" stop-color="#17278C"/>
</linearGradient>
</defs>
</svg>
